X:267
T:The Cordwainers March  267 page135
O:No 267 William Clarke of Feltwell  MS 1858
N:MS key signature G
Z:Transcribed Mary Humphreys 2008
M:4/4
L:1/8
K:C
U:T=!trill!
G|c2 c>d B>A GG|e2 e>f d>c BB|c2 c>d B>AGG|(c/d/e/c/) (d/e/f/g/)|e2 e1:||
:e/f/|gggg (a/g/f/e/) d>e|ffff (g/f/e/d/)  (c/d/)(e/f/)|g2 c>d B>A G(e/f/)|gf/e/ f/e/d/e/ c2 c:||

